packages/symbols/svgs/solid/pc-solid.svg

<svg width="16" height="16" viewBox="0 0 16 16" xmlns="http://www.w3.org/2000/svg"><g clip-path="url(#a)"><path d="M15 0H1C.4 0 0 .4 0 1v11c0 .6.4 1 1 1h5v1H3v2h10v-2h-3v-1h5c.6 0 1-.4 1-1V1c0-.6-.4-1-1-1Zm-1 2v7H2V2h12Z"/></g><defs><clipPath id="a"><path fill="#fff" d="M0 0h16v16H0z"/></clipPath></defs></svg>

<svg width="16" height="16" viewBox="0 0 16 16" fill="none" xmlns="http://www.w3.org/2000/svg">
<g clip-path="url(#clip0_609_3361)">
<path d="M15 0H1C0.4 0 0 0.4 0 1V12C0 12.6 0.4 13 1 13H6V14H3V16H13V14H10V13H15C15.6 13 16 12.6 16 12V1C16 0.4 15.6 0 15 0ZM14 2V9H2V2H14Z" fill="black"/>
</g>
<defs>
<clipPath id="clip0_609_3361">
<rect width="16" height="16" fill="white"/>
</clipPath>
</defs>
</svg>
